X: 13871
T: Fox Chase, The
R: jig
M: 6/8
K: Gmajor
|d4 dc|B4 BA|Bd d4|dc B4|
=B2 A4|A2 B2 BA|GE F2 A2|A4 B2|
=c4 B2|B2 BA GE|F2 A2 A2|d2 de f2|
f2 fe fa|a4 af|d2 c2 B2|g4 B2|
B2 A4|B2 BA GE|F2 A4|B2 =c4|
B4 BA|GE F2 A2|A2 Bd d2|c2 B4|
=B2 A4|B2 A4|B2 A4|B2 BA GE|
F2 A4|B2 =c4|B2 BA GE|F2 A4|
de f4|fe fa a2|a2 fd d2|c2 B2 g2|
g2 B2 =B2|A4 B2|BA GE F2|A4 B2|
=c4 B2|B2 BA GE|F2 A4|A4 A2||

